svg/s/NZ.svg

<svg width="16" height="12" viewBox="0 0 16 12" fill="none" xmlns="http://www.w3.org/2000/svg">
<mask id="mask0" mask-type="alpha" maskUnits="userSpaceOnUse" x="0" y="0" width="16" height="12">
<rect width="16" height="12" fill="white"/>
</mask>
<g mask="url(#mask0)">
<path fill-rule="evenodd" clip-rule="evenodd" d="M0 0V12H16V0H0Z" fill="#2E42A5"/>
<mask id="mask1" mask-type="alpha" maskUnits="userSpaceOnUse" x="0" y="0" width="16" height="12">
<path fill-rule="evenodd" clip-rule="evenodd" d="M0 0V12H16V0H0Z" fill="white"/>
</mask>
<g mask="url(#mask1)">
<mask id="mask2" mask-type="alpha" maskUnits="userSpaceOnUse" x="0" y="0" width="9" height="7">
<rect width="9" height="7" fill="white"/>
</mask>
<g mask="url(#mask2)">
<path d="M-1.00214 6.49993L0.978339 7.36853L9.04494 0.944391L10.0896 -0.346375L7.97176 -0.636686L4.68159 2.13166L2.03334 3.99688L-1.00214 6.49993Z" fill="#F7FCFF"/>
<path d="M-0.731018 7.10849L0.277943 7.61255L9.71445 -0.466309H8.29775L-0.731018 7.10849Z" fill="#F50100"/>
<path d="M10.0021 6.49993L8.02166 7.36853L-0.0449371 0.944391L-1.08959 -0.346375L1.02824 -0.636686L4.31841 2.13166L6.96666 3.99688L10.0021 6.49993Z" fill="#F7FCFF"/>
<path d="M9.93457 6.93661L8.92561 7.44067L4.90745 3.9817L3.71615 3.59523L-1.1901 -0.342034H0.226597L5.13009 3.50178L6.43256 3.96519L9.93457 6.93661Z" fill="#F50100"/>
<mask id="path-10-outside-1" maskUnits="userSpaceOnUse" x="-1" y="-1" width="11" height="9" fill="black">
<rect fill="white" x="-1" y="-1" width="11" height="9"/>
<path fill-rule="evenodd" clip-rule="evenodd" d="M4.99226 0H3.99226V3H0V4H3.99226V7H4.99226V4H9V3H4.99226V0Z"/>
</mask>
<path fill-rule="evenodd" clip-rule="evenodd" d="M4.99226 0H3.99226V3H0V4H3.99226V7H4.99226V4H9V3H4.99226V0Z" fill="#F50100"/>
<path d="M3.99226 0V-0.75H3.24226V0H3.99226ZM4.99226 0H5.74226V-0.75H4.99226V0ZM3.99226 3V3.75H4.74226V3H3.99226ZM0 3V2.25H-0.75V3H0ZM0 4H-0.75V4.75H0V4ZM3.99226 4H4.74226V3.25H3.99226V4ZM3.99226 7H3.24226V7.75H3.99226V7ZM4.99226 7V7.75H5.74226V7H4.99226ZM4.99226 4V3.25H4.24226V4H4.99226ZM9 4V4.75H9.75V4H9ZM9 3H9.75V2.25H9V3ZM4.99226 3H4.24226V3.75H4.99226V3ZM3.99226 0.75H4.99226V-0.75H3.99226V0.75ZM4.74226 3V0H3.24226V3H4.74226ZM0 3.75H3.99226V2.25H0V3.75ZM0.75 4V3H-0.75V4H0.75ZM3.99226 3.25H0V4.75H3.99226V3.25ZM4.74226 7V4H3.24226V7H4.74226ZM4.99226 6.25H3.99226V7.75H4.99226V6.25ZM4.24226 4V7H5.74226V4H4.24226ZM9 3.25H4.99226V4.75H9V3.25ZM8.25 3V4H9.75V3H8.25ZM4.99226 3.75H9V2.25H4.99226V3.75ZM4.24226 0V3H5.74226V0H4.24226Z" fill="#F7FCFF" mask="url(#path-10-outside-1)"/>
</g>
<path fill-rule="evenodd" clip-rule="evenodd" d="M12.4266 10.25L11.5449 10.7135L11.7133 9.73176L11 9.03647L11.9857 8.89324L12.4266 8L12.8674 8.89324L13.8532 9.03647L13.1399 9.73176L13.3083 10.7135L12.4266 10.25Z" fill="#F50100" stroke="#F7FCFF" stroke-width="0.35"/>
<path fill-rule="evenodd" clip-rule="evenodd" d="M10.6 6.93499L9.92016 7.2924L10.05 6.53539L9.5 5.99927L10.2601 5.88882L10.6 5.20007L10.9399 5.88882L11.7 5.99927L11.15 6.53539L11.2798 7.2924L10.6 6.93499Z" fill="#F50100" stroke="#F7FCFF" stroke-width="0.35"/>
<path fill-rule="evenodd" clip-rule="evenodd" d="M14.0988 6.93306L13.4197 7.29007L13.5494 6.5339L13 5.99838L13.7592 5.88806L14.0988 5.20007L14.4383 5.88806L15.1976 5.99838L14.6482 6.5339L14.7779 7.29007L14.0988 6.93306Z" fill="#F50100" stroke="#F7FCFF" stroke-width="0.35"/>
<path fill-rule="evenodd" clip-rule="evenodd" d="M12.6 4.13494L11.9202 4.49235L12.05 3.73534L11.5 3.19922L12.2601 3.08877L12.6 2.40002L12.9399 3.08877L13.7 3.19922L13.15 3.73534L13.2798 4.49235L12.6 4.13494Z" fill="#F50100" stroke="#F7FCFF" stroke-width="0.35"/>
</g>
</g>
</svg>

<svg width="16" height="12" fill="none" xmlns="http://www.w3.org/2000/svg">
  <g mask="url(#NZ_-_New_Zealand_(Aotearoa)__a)">
    <path fill-rule="evenodd" clip-rule="evenodd" d="M0 0v12h16V0H0z" fill="#2E42A5"/>
    <g mask="url(#NZ_-_New_Zealand_(Aotearoa)__b)">
      <g mask="url(#NZ_-_New_Zealand_(Aotearoa)__c)">
        <path d="M-1.002 6.5l1.98.869L9.045.944l1.045-1.29-2.118-.29-3.29 2.768-2.649 1.865L-1.002 6.5z" fill="#F7FCFF"/>
        <path d="M-.731 7.108l1.009.505 9.436-8.08H8.298L-.731 7.109z" fill="#F50100"/>
        <path d="M10.002 6.5l-1.98.869L-.045.944-1.09-.346l2.118-.29 3.29 2.768 2.649 1.865L10.002 6.5z" fill="#F7FCFF"/>
        <path d="M9.935 6.937l-1.01.504-4.018-3.46-1.19-.386L-1.19-.342H.227L5.13 3.502l1.303.463 3.502 2.972z" fill="#F50100"/>
        <path fill-rule="evenodd" clip-rule="evenodd" d="M4.992 0h-1v3H0v1h3.992v3h1V4H9V3H4.992V0z" fill="#F50100"/>
        <path d="M3.992 0v-.75h-.75V0h.75zm1 0h.75v-.75h-.75V0zm-1 3v.75h.75V3h-.75zM0 3v-.75h-.75V3H0zm0 1h-.75v.75H0V4zm3.992 0h.75v-.75h-.75V4zm0 3h-.75v.75h.75V7zm1 0v.75h.75V7h-.75zm0-3v-.75h-.75V4h.75zM9 4v.75h.75V4H9zm0-1h.75v-.75H9V3zM4.992 3h-.75v.75h.75V3zm-1-2.25h1v-1.5h-1v1.5zM4.742 3V0h-1.5v3h1.5zM0 3.75h3.992v-1.5H0v1.5zM.75 4V3h-1.5v1h1.5zm3.242-.75H0v1.5h3.992v-1.5zM4.742 7V4h-1.5v3h1.5zm.25-.75h-1v1.5h1v-1.5zM4.242 4v3h1.5V4h-1.5zM9 3.25H4.992v1.5H9v-1.5zM8.25 3v1h1.5V3h-1.5zm-3.258.75H9v-1.5H4.992v1.5zM4.242 0v3h1.5V0h-1.5z" fill="#F7FCFF" mask="url(#NZ_-_New_Zealand_(Aotearoa)__d)"/>
      </g>
      <path fill-rule="evenodd" clip-rule="evenodd" d="M12.427 10.25l-.882.463.168-.981L11 9.036l.986-.143.44-.893.441.893.986.143-.713.696.168.982-.881-.464zM10.6 6.935l-.68.357.13-.757L9.5 6l.76-.11.34-.689.34.689.76.11-.55.536.13.757-.68-.357zm3.499-.002l-.68.357.13-.756L13 5.998l.76-.11.339-.688.34.688.759.11-.55.536.13.756-.68-.357zM12.6 4.135l-.68.357.13-.757-.55-.536.76-.11.34-.689.34.689.76.11-.55.536.13.757-.68-.357z" fill="#F50100" stroke="#F7FCFF" stroke-width=".35"/>
    </g>
  </g>
</svg>
